images_sukapura_svg/cmd/sc_paralefttoright.svg

<svg viewBox="0 0 16 16" xmlns="http://www.w3.org/2000/svg">
/&amp;amp;gt;<path d="m6 0c-2.209139 0-4 1.790861-4 4s1.790861 4 4 4v1.8671875l1.4941406 1.4941405-.2207031-.166016c.4596022.255718.6969053.72661.7265625 1.210938v-10.40625h2v14h2v-14l3-1v-1h-3-2-2zm2 12.597656c-.0273617.481987-.259874.952435-.7148438 1.210938l.2109376-.160156-1.4960938 1.490234v.861328h2z" fill="#69696e"/><path d="m3.5273438 9c-.3055168-.007736-.4934255.2409329-.4960938.5h-.03125v2h-2.5c-.277 0-.5.223-.5.5v.505859.494141c0 .277.223.5.5.5h2.5v2h.0117188c.0083813.382489.5000415.706965.859375.349609l2.9199218-2.910156c.3388519-.192527.336656-.681609-.0039062-.871094l-2.9160156-2.9160152c-.0903789-.0935991-.2137025-.1482538-.34375-.1523438z" fill="#0a84ff" fill-rule="evenodd"/></svg>

<?xml version="1.0" encoding="UTF-8" standalone="no"?>
<svg
   xmlns:dc="http://purl.org/dc/elements/1.1/"
   xmlns:cc="http://creativecommons.org/ns#"
   xmlns:rdf="http://www.w3.org/1999/02/22-rdf-syntax-ns#"
   xmlns:svg="http://www.w3.org/2000/svg"
   xmlns="http://www.w3.org/2000/svg"
   xmlns:sodipodi="http://sodipodi.sourceforge.net/DTD/sodipodi-0.dtd"
   xmlns:inkscape="http://www.inkscape.org/namespaces/inkscape"
   viewBox="0 0 16 16"
   version="1.1"
   id="svg6"
   sodipodi:docname="sc_paralefttoright.svg"
   inkscape:version="0.92.3 (2405546, 2018-03-11)"><metadata
   id="metadata12">
  <rdf:RDF>
    <cc:Work
       rdf:about="">
      <dc:format>image/svg+xml</dc:format>
      <dc:type
         rdf:resource="http://purl.org/dc/dcmitype/StillImage" />
      <dc:title></dc:title>
    </cc:Work>
  </rdf:RDF>
</metadata>
<defs
   id="defs10" />
<sodipodi:namedview
   pagecolor="#ffffff"
   bordercolor="#666666"
   borderopacity="1"
   objecttolerance="10"
   gridtolerance="10"
   guidetolerance="10"
   inkscape:pageopacity="0"
   inkscape:pageshadow="2"
   inkscape:window-width="1366"
   inkscape:window-height="692"
   id="namedview8"
   showgrid="true"
   inkscape:zoom="41.7193"
   inkscape:cx="5.7551111"
   inkscape:cy="2.3487404"
   inkscape:window-x="0"
   inkscape:window-y="0"
   inkscape:window-maximized="1"
   inkscape:current-layer="svg6">
  <inkscape:grid
     type="xygrid"
     id="grid822"
     spacingx="0.5"
     spacingy="0.5"
     empspacing="1" />
</sodipodi:namedview>
/&amp;gt;<path
   d="m6 0c-2.209139 0-4 1.790861-4 4s1.790861 4 4 4v1.8671875l1.4941406 1.4941405-.2207031-.166016c.4596022.255718.6969053.72661.7265625 1.210938v-10.40625h2v14h2v-14l3-1v-1h-3-2-2zm2 12.597656c-.0273617.481987-.259874.952435-.7148438 1.210938l.2109376-.160156-1.4960938 1.490234v.861328h2z"
   fill="#696969"
   id="path2"
   style="fill:#69696e;fill-opacity:1" />
<path
   style="fill:#0a84ff;fill-rule:evenodd;fill-opacity:1"
   d="M 3.5273438 9 C 3.221827 8.992264 3.0339183 9.2409329 3.03125 9.5 L 3 9.5 L 3 11.5 L 0.5 11.5 C 0.223 11.5 0 11.723 0 12 L 0 12.505859 L 0 13 C 0 13.277 0.223 13.5 0.5 13.5 L 3 13.5 L 3 15.5 L 3.0117188 15.5 C 3.0201001 15.882489 3.5117603 16.206965 3.8710938 15.849609 L 6.7910156 12.939453 C 7.1298675 12.746926 7.1276716 12.257844 6.7871094 12.068359 L 3.8710938 9.1523438 C 3.7807149 9.0587447 3.6573913 9.00409 3.5273438 9 z "
   id="path4" />
</svg>
